ir/crop-rotate-tl.svg

<svg viewBox="0 0 24 24" stroke-width="1.5" fill="none" xmlns="http://www.w3.org/2000/svg" height="1em" width="1em">
  <path d="M10 4H7C4.79086 4 3 5.79086 3 8V12" stroke="currentColor" stroke-linecap="round" stroke-linejoin="round"/>
  <path d="M7.5 1.5L10 4L7.5 6.5" stroke="currentColor" stroke-linecap="round" stroke-linejoin="round"/>
  <path d="M20 17L20 11C20 10.4477 19.5523 10 19 10L13 10" stroke="currentColor" stroke-linecap="round" stroke-linejoin="round"/>
  <path d="M8 10H10" stroke="currentColor" stroke-linecap="round" stroke-linejoin="round"/>
  <path d="M20 22V20" stroke="currentColor" stroke-linecap="round" stroke-linejoin="round"/>
  <path d="M10 8L10 19C10 19.5523 10.4477 20 11 20L22 20" stroke="currentColor" stroke-linecap="round" stroke-linejoin="round"/>
</svg>

<svg viewBox="0 0 24 24" stroke-width="1.5" fill="none" xmlns="http://www.w3.org/2000/svg" height="1em" width="1em">
  <path d="M10 4H7a4 4 0 0 0-4 4v4" stroke="currentColor" stroke-linecap="round" stroke-linejoin="round"/>
  <path d="M7.5 1.5 10 4 7.5 6.5M20 17v-6a1 1 0 0 0-1-1h-6m-5 0h2m10 12v-2M10 8v11a1 1 0 0 0 1 1h11" stroke="currentColor" stroke-linecap="round" stroke-linejoin="round"/>
</svg>
